img/svg/map-ico-48.svg

<svg width="48" height="48" viewBox="0 0 48 48" fill="none" xmlns="http://www.w3.org/2000/svg">
<path d="M28.9378 27.845C29.1239 28.1393 29.4479 28.3179 29.7962 28.3179H30.1848C30.5331 28.3179 30.8571 28.1393 31.0432 27.8449C31.7358 26.7491 32.6137 25.7878 33.4627 24.858C35.1991 22.9564 36.9947 20.9901 36.9976 17.999C36.9931 14.1398 33.8498 11 29.9905 11C26.1312 11 22.9879 14.1398 22.9834 18.0012C22.9863 20.9901 24.7818 22.9564 26.5183 24.8581C27.3672 25.7878 28.2451 26.7492 28.9378 27.845ZM29.9905 13.031C32.7311 13.031 34.9634 15.2608 34.9666 17.9992C34.9644 20.2015 33.5735 21.7247 31.9629 23.4885C31.2983 24.2163 30.6171 24.9623 29.9905 25.7988C29.3639 24.9624 28.6827 24.2163 28.0181 23.4885C26.4075 21.7247 25.0166 20.2015 25.0144 18.0013C25.0176 15.2607 27.2498 13.031 29.9905 13.031Z" fill="#E0E0E0"/>
<path d="M30.9552 20.1333C30.9552 19.5724 30.5005 19.1178 29.9396 19.1178C29.3797 19.1178 28.9241 18.6622 28.9241 18.1022C28.9241 17.5423 29.3797 17.0867 29.9396 17.0867C30.4996 17.0867 30.9552 17.5423 30.9552 18.1022C30.9552 18.6631 31.4098 19.1178 31.9707 19.1178C32.5316 19.1178 32.9862 18.6631 32.9862 18.1022C32.9862 16.4223 31.6195 15.0557 29.9396 15.0557C28.2597 15.0557 26.8931 16.4223 26.8931 18.1022C26.8931 19.7821 28.2597 21.1488 29.9396 21.1488C30.5005 21.1488 30.9552 20.6941 30.9552 20.1333Z" fill="#E0E0E0"/>
<path d="M35.9818 25.4734C35.421 25.4734 34.9663 25.9281 34.9663 26.489V33.9259C34.9663 34.2751 34.7996 34.5895 34.509 34.7883C34.2297 34.9795 33.8921 35.0203 33.583 34.9001C33.5666 34.8938 33.55 34.8878 33.5333 34.8822L29.7017 33.6186C28.6239 33.2204 27.4668 33.1624 26.3542 33.4512L21.0376 34.8308C20.347 35.0101 19.616 35.0139 18.9236 34.8418L14.5725 33.761C13.6649 33.5356 13.0311 32.725 13.0311 31.7899V14.0488C13.0311 13.7073 13.193 13.4012 13.4754 13.2092C13.7578 13.0171 14.102 12.9788 14.4196 13.1043C14.4355 13.1106 14.4514 13.1164 14.4675 13.1218L18.2588 14.4029C19.2278 14.77 20.2772 14.8612 21.2952 14.6664C21.8461 14.561 22.2073 14.029 22.1019 13.4782C21.9965 12.9273 21.4643 12.566 20.9137 12.6715C20.2603 12.7965 19.5867 12.7368 18.9655 12.4987C18.9528 12.4938 18.9401 12.4893 18.9272 12.4849L15.1393 11.2051C14.207 10.8466 13.16 10.9673 12.3331 11.5298C11.4984 12.0976 11 13.0393 11 14.0488V31.7899C11 33.6601 12.2677 35.2813 14.0828 35.7322L18.4338 36.813C18.933 36.937 19.4458 36.999 19.9587 36.999C20.4936 36.999 21.0284 36.9316 21.5477 36.7968L26.8643 35.4172C27.5778 35.2321 28.3199 35.2705 29.0103 35.5285C29.0227 35.5331 29.0352 35.5375 29.0477 35.5416L32.8746 36.8037C33.7977 37.152 34.8353 37.0262 35.6559 36.4645C36.4958 35.8897 36.9973 34.9407 36.9973 33.9258V26.489C36.9974 25.9281 36.5427 25.4734 35.9818 25.4734Z" fill="#E0E0E0"/>
<path d="M19.9874 20.3457C19.4264 20.3457 18.9719 20.8001 18.9719 21.3612C18.9719 21.9218 19.4264 22.3767 19.9874 22.3767C20.5485 22.3767 21.003 21.9218 21.003 21.3612C21.003 20.8001 20.5485 20.3457 19.9874 20.3457Z" fill="#E0E0E0"/>
<path d="M19.9874 24.002C19.4264 24.002 18.9719 24.4564 18.9719 25.0175C18.9719 25.5786 19.4264 26.033 19.9874 26.033C20.5485 26.033 21.003 25.5786 21.003 25.0175C21.003 24.4564 20.5485 24.002 19.9874 24.002Z" fill="#E0E0E0"/>
<path d="M19.9874 27.6572C19.4264 27.6572 18.9719 28.1117 18.9719 28.6727C18.9719 29.2338 19.4264 29.6883 19.9874 29.6883C20.5485 29.6883 21.003 29.2338 21.003 28.6727C21.003 28.1117 20.5485 27.6572 19.9874 27.6572Z" fill="#E0E0E0"/>
<path d="M19.9874 16.6904C19.4264 16.6904 18.9719 17.1449 18.9719 17.7059C18.9719 18.2665 19.4264 18.7215 19.9874 18.7215C20.5485 18.7215 21.003 18.2665 21.003 17.7059C21.003 17.1449 20.5485 16.6904 19.9874 16.6904Z" fill="#E0E0E0"/>
<path d="M19.9874 31.3135C19.4264 31.3135 18.9719 31.7679 18.9719 32.329C18.9719 32.8896 19.4264 33.3445 19.9874 33.3445C20.5485 33.3445 21.003 32.8896 21.003 32.329C21.003 31.7679 20.5485 31.3135 19.9874 31.3135Z" fill="#E0E0E0"/>
</svg>

<svg width="48" height="48" fill="none" xmlns="http://www.w3.org/2000/svg"><path d="M28.938 27.845c.186.294.51.473.858.473h.389c.348 0 .672-.179.858-.473.693-1.096 1.57-2.057 2.42-2.987 1.736-1.902 3.532-3.868 3.535-6.859C36.993 14.139 33.85 11 29.99 11s-7.003 3.14-7.008 7.001c.003 2.99 1.799 4.955 3.535 6.857.85.93 1.727 1.891 2.42 2.987zm1.053-14.814c2.74 0 4.972 2.23 4.976 4.968-.003 2.203-1.393 3.726-3.004 5.49-.665.727-1.346 1.473-1.973 2.31-.626-.837-1.307-1.583-1.972-2.31-1.61-1.764-3.001-3.288-3.004-5.488a4.983 4.983 0 014.977-4.97z" fill="#E0E0E0"/><path d="M30.955 20.133c0-.56-.454-1.015-1.015-1.015a1.017 1.017 0 010-2.031c.56 0 1.015.455 1.015 1.015a1.016 1.016 0 102.031 0 3.05 3.05 0 00-3.046-3.046 3.05 3.05 0 00-3.047 3.046 3.05 3.05 0 003.047 3.047c.56 0 1.015-.455 1.015-1.016z" fill="#E0E0E0"/><path d="M35.982 25.473c-.561 0-1.016.455-1.016 1.016v7.437c0 .35-.166.663-.457.862a.986.986 0 01-.926.112 1.224 1.224 0 00-.05-.018l-3.831-1.263a5.573 5.573 0 00-3.348-.168l-5.316 1.38a4.286 4.286 0 01-2.114.01l-4.351-1.08a2.027 2.027 0 01-1.542-1.971V14.049c0-.342.162-.648.444-.84.283-.192.627-.23.945-.105a.949.949 0 00.047.018l3.792 1.28a5.595 5.595 0 003.036.264 1.016 1.016 0 00-.381-1.995 3.566 3.566 0 01-1.987-.186l-3.788-1.28A3.044 3.044 0 0011 14.05v17.74a4.055 4.055 0 003.084 3.943l4.35 1.081a6.33 6.33 0 003.115-.016l5.316-1.38a3.552 3.552 0 012.184.125l3.827 1.262a3.03 3.03 0 002.78-.34 3.076 3.076 0 001.342-2.538V26.49c0-.56-.454-1.016-1.015-1.016z" fill="#E0E0E0"/><path d="M19.987 20.346a1.015 1.015 0 100 2.03 1.015 1.015 0 000-2.03zm0 3.656a1.015 1.015 0 100 2.03 1.015 1.015 0 000-2.03zm0 3.655a1.015 1.015 0 100 2.03 1.015 1.015 0 000-2.03zm0-10.967a1.015 1.015 0 100 2.031 1.015 1.015 0 000-2.03zm0 14.624a1.015 1.015 0 100 2.03 1.015 1.015 0 000-2.03z" fill="#E0E0E0"/></svg>
